material/.icons/material/scale.svg

<svg xmlns="http://www.w3.org/2000/svg" viewBox="0 0 24 24"><path d="M8.46 15.06l-1.41 1.41-1.37-1.37A7.941 7.941 0 004.06 19H6v2H2v-1c0-4.84 3.44-8.87 8-9.8v-2L2 5V3h20v2l-8 3.2v2c4.56.93 8 4.96 8 9.8v1h-4v-2h1.94a7.941 7.941 0 00-1.62-3.9l-1.37 1.37-1.41-1.41 1.37-1.38A7.976 7.976 0 0013 12.06V14h-2v-1.94c-1.46.18-2.8.76-3.91 1.62l1.37 1.38M12 18a2 2 0 012 2 2 2 0 01-2 2c-.32 0-.62-.07-.88-.21L7.27 20l3.85-1.79c.26-.14.56-.21.88-.21z"/></svg>

<?xml version="1.0" encoding="UTF-8"?><!DOCTYPE svg PUBLIC "-//W3C//DTD SVG 1.1//EN" "http://www.w3.org/Graphics/SVG/1.1/DTD/svg11.dtd"><svg xmlns="http://www.w3.org/2000/svg" xmlns:xlink="http://www.w3.org/1999/xlink" version="1.1" id="mdi-scale" width="24" height="24" viewBox="0 0 24 24"><path d="M8.46,15.06L7.05,16.47L5.68,15.1C4.82,16.21 4.24,17.54 4.06,19H6V21H2V20C2,15.16 5.44,11.13 10,10.2V8.2L2,5V3H22V5L14,8.2V10.2C18.56,11.13 22,15.16 22,20V21H18V19H19.94C19.76,17.54 19.18,16.21 18.32,15.1L16.95,16.47L15.54,15.06L16.91,13.68C15.8,12.82 14.46,12.24 13,12.06V14H11V12.06C9.54,12.24 8.2,12.82 7.09,13.68L8.46,15.06M12,18A2,2 0 0,1 14,20A2,2 0 0,1 12,22C11.68,22 11.38,21.93 11.12,21.79L7.27,20L11.12,18.21C11.38,18.07 11.68,18 12,18Z" /></svg>
